X:1
T:Title
%%score { ( 1 4 ) | ( 2 3 ) }
L:1/8
M:6/8
K:G
V:1 treble nm="Grand Piano"
V:4 treble 
V:2 treble 
V:3 treble 
V:1
 z3 z2[Q:1/4=75] B/c/ | dBe d2 G/A/ | BGc B2 B/A/ | [DG][DA][G,DG] ^D-[DG][A,DF] |[M:5/8] E-E- E3 | %5
[M:1/8] E/E/ |[M:3/4] [Ec][Fd] [Ec] E2 D/D/ | [DB][Ec] [DB] [G,D]2 [G,DG]/[G,DG]/ | %8
 [A,DF][DA] [DF] [^CE]2 [CA] | A6 | B3 d3 | e3 B2 G | B2 z2 z2 | A6 | d3 e3 | [Ad]3 .[Gc]3 | %16
 .B2 z2 z2[Q:1/4=74][Q:1/4=73][Q:1/4=72][Q:1/4=71][Q:1/4=69][Q:1/4=68][Q:1/4=67][Q:1/4=66][Q:1/4=65] | %17
[M:5/8] [B,G]-[B,G]- [B,G]3[Q:1/4=64][Q:1/4=63][Q:1/4=62][Q:1/4=61][Q:1/4=60][Q:1/4=58][Q:1/4=57] |] %18
V:2
 z3 z2 [G,G]/[G,A,G]/ | [G,B,G][G,DG][G,CG] [G,B,G]2[K:bass] [G,D]/-[G,CD]/ | %2
 [G,D][G,B,D][F,A,D] [G,D]2 [G,,G,]/[A,,F,]/ | [B,,G,][B,,G,]B,, z B,B,, | %4
[M:5/8] [C,G,]3 [B,,^G,]2 |[M:1/8] [E,^G,]/[E,G,]/ | %6
[M:3/4] [A,,A,][A,,A,] [A,,A,] [D,F,C]2 [D,F,]/[D,F,]/ | [G,,G,][G,,G,] [G,,G,] B,,2 B,,/B,,/ | %8
 A,,[A,,F,] [A,,A,] [A,,G,]2 [A,,G,] | [F,C]A, G, .F,3 | z D .D2 DD | z E .E2 D.[B,D] | %12
 z B, .[B,E]2[K:treble] [EG]E | z2 z .D3 | z D .D2[K:treble] [E^G][EG] | [A,,,A,,]3 [C,,C,]3 | %16
 [D,,D,]3 [E,^C]2 [F,=C] |[M:5/8] [G,,G,]-[G,,G,]- [G,,G,]3 |] %18
V:3
 x6 | z3 z2[K:bass] .B, | x6 | z3 .B,,3 |[M:5/8] x5 |[M:1/8] x |[M:3/4] x6 | x6 | x6 | D,6 | %10
 [G,,G,]3 [F,,F,]3 | [E,,E,]3 [D,,D,]3 | [C,,C,]3 [^C,,^C,]3[K:treble] | [D,,D,]6 | %14
 [B,,,B,,]3 [E,,E,]3[K:treble] | x6 | z2 z D,3 |[M:5/8] x5 |] %18
V:4
 x6 | x6 | z3 z2 D | z3 .[A,F]3 |[M:5/8] z z2 D2 |[M:1/8] x |[M:3/4] x6 | x6 | x6 | z F E .D3 | %10
 z G .G2 AA | z G .G2 .G>A | z E BB AG | [EG]3 F2 B/c/ | z G .G2 BB | EF E ^D2- [D-G]/[DA]/ | %16
 D-[D-B] [DB] B2 A |[M:5/8] x5 |] %18

